X:1
T:Vöglein im kalten Winter
T:Johann Georg Herzog
T:Altdeutsches Volkslied 
T:Vöglein im kalten Winter
C:Johann Georg Herzog
%%score [ 1 2 3 4 ]
L:1/8
Q:1/4=80
M:4/4
K:D
V:1 treble nm="Sopran"
V:2 treble nm="Alt"
V:3 treble-8 nm="Tenor"
V:4 bass nm="Bass"
V:1
"^Con moto"!pp! F4 A2 G2 | .F4 .B4 | c4 B2 z2 | F4!<(! B2 d2 | c6!<)! z2 |!f! B4 c2 d2 | e4 d4 | %7
w: 1.~Vög- lein im|kal- ten|Win- ter,|wo ist dein|Nest?|un- ter dem|Him- mel,|
!<(! c4 d2 e2!<)! | (f4 ed e2) | !fermata!d4 z2!mf! dc ||[M:3/4]"^leicht" .B2 .B2 .F2 | %11
w: un- ter dem|Him- * * *|mel! Es _|gibt noch manch|
 !>!AG F2!pp! .dc | .B2 .B2 .F2 | !>!AG F2 E2 |!<(! F2 AG F2 | (E2!<)! F2!>(! G2) | F6-!>)! | %17
w: Eck- * lein, manch _|war- mes Ver-|steck- * lein in|Fal- ten _ und|Spal- * *|ten.|
 F2 z2 z2 ||[M:4/4]!f! !>!F4 !>!B4 | c2 Bc d3 z |!p! c2 Bc d3 z |!ff! f4 d2 B2 | (A4 GF G2) | %23
w: _|Da, da|find ich mein Nest,|auf's al- ler- best'|un- ter dem|Him- * * *|
[Q:1/4=60]"^rit."!>(! F8-!>)! |!pp! !fermata!F8 |] %25
w: mel.||
V:2
!pp! D4 E2 D2 | .D4 .D4 | (G2 F2) F2 z2 | D4!<(! F2 F2 | F6!<)! z2 |!f! F4 A2 A2 | G4 F4 | %7
w: 2.~Vög- lein auf|kah- lem|Fel- * de,|wo ist dein'|Speis?|in Got- tes|Hän- den,|
!<(! A4 A2 G2!<)! | ((A4 A)F A2) | !fermata!F4 z2!mf! F2 ||[M:3/4] .G2 .G2 .F2 | !>!E2 D2!pp! .F2 | %12
w: in Got- tes|Hän- * * *|den! Es|liegt noch manch|Körn- lein, manch|
 .G2 .G2 .F2 | !>!E2 D2 E2 |!<(! D2 FE D2 | (D4!<)!!>(! C2) | D6-!>)! | D2 z2 z2 || %18
w: nies- ba- res|Börn- lein an|We- gen _ und|Ste- *|gen.|_|
[M:4/4]!f! !>!F4 !>!D4 | z FFF F3 z | z!p! FFF F3 z |!ff! =A4 A2 G2 | (F4 E4- |!>(! E4 DC D2)!>)! | %24
w: Da, da|find ich mein Speis'|auf tau- send Weis'|in Got- tes|Hän- *||
!pp! !fermata!C8 |] %25
w: den.|
V:3
!pp! B4 c2 B2 | .A4 .B4 | (B2 ^A2) B2 z2 | B4!<(! B2 B2 | ^A6!<)! z2 |!f! d4 e2 d2 | (B2 c2) d4 | %7
w: 3.~Vög- lein auf|dür- rem|Zwei- * ge,|wo ist dein|Sang?|still in dem|Her- * zen,|
!<(! e4 d2 B2!<)! | (d4 cd c2) | !fermata!d4 z2!mf! d2 ||[M:3/4] .d2 .d2 .d2 | !>!B2 B2!pp! .d2 | %12
w: still in dem|Her- * * *|zen! Da|liegt noch manch|Lied- lein, manch|
 .d2 .d2 .d2 | !>!Bc d2 A2 |!<(! A2 A2 A2 | (B4!<)!!>(! A2) | A6-!>)! | A2 z2 z2 || %18
w: sing- sa- mes|Blüth- * lein tief|in- nen im|Sin- *|nen.|_|
[M:4/4]!f! !>!F4 !>!B4 | z ^Adc B3 z | z!p! ^Afe d3 z |!ff! c4 d2 d2 | (d4 B4 |!>(! ^A4 B4)!>)! | %24
w: Bald, bald|Früh- lings- an- fang,|wacht auf mein Sang,|lobt Gott im|Him- *||
!pp! !fermata!^A8 |] %25
w: mel.|
V:4
!pp! B,,4 A,,2 B,,2 | .D,4 .G,4 | (E,2 F,2) D,2 z2 | (B,,2!<(! C,2) D,2 D,E, | F,6!<)! z2 | %5
 z2!f! B,2 A,2 F,2 | (G,2 A,2) B,4 |!<(! (A,2 G,2) F,2 E,2!<)! | (D,2 F,2 A,4) | %9
 !fermata!D,4 z2!mf! D,2 ||[M:3/4] .G,2 .G,2 .D,2 | !>!E,2 B,,2!pp! .B,A, | .G,2 .G,2 .D,2 | %13
 !>!E,2 B,,2 C,2 |!<(! D,2 D,E, F,2 | (G,2!<)! F,E,!>(! A,2) | D,6-!>)! | D,2 z2 z2 || %18
[M:4/4]!f! !>!F,4 !>!G,4 | z F,B,^A, B,3 z | z!p! F,^G,^A, B,3 z |!ff! F,4 F,2 G,2 | (D,4 E,4 | %23
!>(! F,8)!>)! |!pp! !fermata!F,,8 |] %25

